X: 4926
T: Breakdown
R: reel
M: 4/4
K: Amajor
|:ceee ceee|dfff dfff|ceee ceee|d2 B2 B2 e2|
ceee ceee|dfff dfff|eagf edcB|A2 a2 A4:|

